X:1
T: A' the Way to Galloway
C:
R:Reel
I:speed 232
Q:232
K:Em
M:4/4
L:1/8
|:ef ge dB Bd|cA Ac dB Bd|ef ge dB Bd|cA BG E1/2E1/2E E2|
ef ge dB Bd|cA Ac dB Bd|ef ge dB Bd|cA BG E1/2E1/2EE2|
Bc BA Bc dB|AB AG FG Ac|Bc BA Bc de|dB dF E1/2E1/2EE2|
Bc BA Bc dB|AB AG FG Ac|Bc BA Bc de|dB dF E1/2E1/2EE2:|
